X:267
T:Mazurka de Lapleau
R:Mazurka
M: 3/4
L: 1/8
K:G
DG|B2 Bd BG|B2 Bd BG|A2 Ac BA|B2 G2 DG|B2 Bd BG|B2 Bd BG|A2 Ac AF|1 G4 DG:|2 G4 dB|
  |GD GB dB|c2 A2 cA|FD FA cA|B2 G2 dB|GD GB dB|c2 A2 cA|FD FA cA|1 G4 dB:|2 G4 DG|
